X: 129
T: Xiu hebao
%%abc-version 2.0
%%abcx-abcm2ps-target-version 5.9.1 (29 Sep 2008)
%%abc-creator hum2abc beta
%%abcx-conversion-date 2013/10/02 07:52:29
%%abc-edited-by Helmut Schaffrath
%%humdrum-veritas 323896265
%%humdrum-veritas-data 3759839046
%%continueall 1
%%barnumbers 0
L: 1/8
M: 2/4
K: Eb
e c/ B/ c/ B/ A [I:setbarnb 1]| 
B4 | 
f2c e | 
f4 | 
e2c e | 
f2e2 | 
c f c/ B/ A | 
B4 | 
c/ f/ f f e | 
c2z2 | 
f2f2 | 
e2e2 | 
f c/ e/ c/ B/ A | 
B4 |]  



